packages/synapse-interface/assets/chains/boba.svg

<svg fill="none" height="48" viewBox="0 0 48 48" width="48" xmlns="http://www.w3.org/2000/svg"><path d="m24.7344 19.7441c-2.7721 0-5.3558.8343-7.5088 2.2607l.592 3.4584c1.8571-1.6148 4.2793-2.5971 6.9302-2.5971 5.8268 0 10.5635 4.7367 10.5635 10.5635 0 5.8267-4.7367 10.5635-10.5635 10.5635-5.8267 0-10.5635-4.7368-10.5635-10.5635 0-.7805.0808-1.5341.2423-2.2608l-.942-5.5037c-1.5206 2.2069-2.4222 4.8847-2.4222 7.7645 0 7.5357 6.1362 13.672 13.672 13.672 7.5357 0 13.672-6.1363 13.672-13.672 0-7.5358-6.1228-13.6855-13.672-13.6855z" fill="#c8ff00"/><path d="m16.6065 32.9048c-.8477 0-1.5744-.6056-1.7224-1.4534l-4.8579-28.52813c-.08072-.45753.0269-.91506.2961-1.3053.2691-.39025.6728-.632466 1.1303-.713206.942-.16148 1.8436.484436 2.0051 1.426406l4.8578 28.52813c.0808.4576-.0269.9151-.296 1.3053-.2691.3768-.6728.6325-1.1304.7132-.0807.027-.1884.027-.2826.027z" fill="#c8ff00"/><g fill="#1cd7d1"><path d="m26.4838 29.0696c1.0256 0 1.857-.8314 1.857-1.857s-.8314-1.857-1.857-1.857-1.8571.8314-1.8571 1.857.8315 1.857 1.8571 1.857z"/><path d="m32.8622 31.4649c0 1.0256-.8314 1.8571-1.857 1.8571s-1.857-.8315-1.857-1.8571.8314-1.857 1.857-1.857 1.857.8314 1.857 1.857z"/><path d="m27.0893 33.3757c0 1.0256-.8314 1.857-1.857 1.857s-1.8571-.8314-1.8571-1.857.8315-1.857 1.8571-1.857 1.857.8314 1.857 1.857z"/><path d="m29.8076 39.2294c1.0256 0 1.857-.8314 1.857-1.857s-.8314-1.857-1.857-1.857c-1.0257 0-1.8571.8314-1.8571 1.857s.8314 1.857 1.8571 1.857z"/><path d="m23.9943 41.3959c1.0256 0 1.857-.8314 1.857-1.857s-.8314-1.857-1.857-1.857-1.8571.8314-1.8571 1.857.8315 1.857 1.8571 1.857z"/><path d="m19.4593 37.1302c1.0257 0 1.8571-.8314 1.8571-1.857s-.8314-1.8571-1.8571-1.8571c-1.0256 0-1.857.8315-1.857 1.8571s.8314 1.857 1.857 1.857z"/><path d="m22.5006 29.3791c0 1.0256-.8314 1.857-1.857 1.857-1.0257 0-1.8571-.8314-1.8571-1.857s.8314-1.857 1.8571-1.857c1.0256 0 1.857.8314 1.857 1.857z"/></g></svg>

<svg width="48" height="48" viewBox="0 0 48 48" fill="none" xmlns="http://www.w3.org/2000/svg">
<path d="M24.7344 19.7441C21.9623 19.7441 19.3786 20.5784 17.2256 22.0048L17.8176 25.4632C19.6747 23.8484 22.0969 22.8661 24.7478 22.8661C30.5746 22.8661 35.3113 27.6028 35.3113 33.4296C35.3113 39.2563 30.5746 43.9931 24.7478 43.9931C18.9211 43.9931 14.1843 39.2563 14.1843 33.4296C14.1843 32.6491 14.2651 31.8955 14.4266 31.1688L13.4846 25.6651C11.964 27.872 11.0624 30.5498 11.0624 33.4296C11.0624 40.9653 17.1986 47.1016 24.7344 47.1016C32.2701 47.1016 38.4064 40.9653 38.4064 33.4296C38.4064 25.8938 32.2836 19.7441 24.7344 19.7441Z" fill="#C8FF00"/>
<path d="M16.6065 32.9048C15.7588 32.9048 15.0321 32.2992 14.8841 31.4514L10.0262 2.92327C9.94548 2.46574 10.0531 2.00821 10.3223 1.61797C10.5914 1.22772 10.9951 0.985504 11.4526 0.904764C12.3946 0.743284 13.2962 1.3892 13.4577 2.33117L18.3155 30.8593C18.3963 31.3169 18.2886 31.7744 18.0195 32.1646C17.7504 32.5414 17.3467 32.7971 16.8891 32.8778C16.8084 32.9048 16.7007 32.9048 16.6065 32.9048Z" fill="#C8FF00"/>
<path d="M26.4838 29.0696C27.5094 29.0696 28.3408 28.2382 28.3408 27.2126C28.3408 26.187 27.5094 25.3556 26.4838 25.3556C25.4582 25.3556 24.6267 26.187 24.6267 27.2126C24.6267 28.2382 25.4582 29.0696 26.4838 29.0696Z" fill="#1CD7D1"/>
<path d="M32.8622 31.4649C32.8622 32.4905 32.0308 33.322 31.0052 33.322C29.9796 33.322 29.1482 32.4905 29.1482 31.4649C29.1482 30.4393 29.9796 29.6079 31.0052 29.6079C32.0308 29.6079 32.8622 30.4393 32.8622 31.4649Z" fill="#1CD7D1"/>
<path d="M27.0893 33.3757C27.0893 34.4013 26.2579 35.2327 25.2323 35.2327C24.2067 35.2327 23.3752 34.4013 23.3752 33.3757C23.3752 32.3501 24.2067 31.5187 25.2323 31.5187C26.2579 31.5187 27.0893 32.3501 27.0893 33.3757Z" fill="#1CD7D1"/>
<path d="M29.8076 39.2294C30.8332 39.2294 31.6646 38.398 31.6646 37.3724C31.6646 36.3468 30.8332 35.5154 29.8076 35.5154C28.7819 35.5154 27.9505 36.3468 27.9505 37.3724C27.9505 38.398 28.7819 39.2294 29.8076 39.2294Z" fill="#1CD7D1"/>
<path d="M23.9943 41.3959C25.0199 41.3959 25.8513 40.5645 25.8513 39.5389C25.8513 38.5133 25.0199 37.6819 23.9943 37.6819C22.9687 37.6819 22.1372 38.5133 22.1372 39.5389C22.1372 40.5645 22.9687 41.3959 23.9943 41.3959Z" fill="#1CD7D1"/>
<path d="M19.4593 37.1302C20.485 37.1302 21.3164 36.2988 21.3164 35.2732C21.3164 34.2476 20.485 33.4161 19.4593 33.4161C18.4337 33.4161 17.6023 34.2476 17.6023 35.2732C17.6023 36.2988 18.4337 37.1302 19.4593 37.1302Z" fill="#1CD7D1"/>
<path d="M22.5006 29.3791C22.5006 30.4047 21.6692 31.2361 20.6436 31.2361C19.6179 31.2361 18.7865 30.4047 18.7865 29.3791C18.7865 28.3535 19.6179 27.5221 20.6436 27.5221C21.6692 27.5221 22.5006 28.3535 22.5006 29.3791Z" fill="#1CD7D1"/>
</svg>
